assets/images/docker.svg

<?xml version="1.0" encoding="UTF-8"?>
<!DOCTYPE svg  PUBLIC '-//W3C//DTD SVG 1.1//EN'  'http://www.w3.org/Graphics/SVG/1.1/DTD/svg11.dtd'>
<svg clip-rule="evenodd" fill-rule="evenodd" stroke-linejoin="round" stroke-miterlimit="2" version="1.1" viewBox="0 0 100 100" xml:space="preserve" xmlns="http://www.w3.org/2000/svg">
    <g transform="matrix(.15468 0 0 .15468 .50674 10.395)">
        <path d="m349.9 236.3h-66.1v-59.4h66.1v59.4zm0-204.3h-66.1v60.7h66.1v-60.7zm78.2 144.8h-66.1v59.4h66.1v-59.4zm-156.3-72.1h-66.1v60.1h66.1v-60.1zm78.1 0h-66.1v60.1h66.1v-60.1zm276.8 100c-14.4-9.7-47.6-13.2-73.1-8.4-3.3-24-16.7-44.9-41.1-63.7l-14-9.3-9.3 14c-18.4 27.8-23.4 73.6-3.7 103.8-8.7 4.7-25.8 11.1-48.4 10.7h-434.7c-8.7 50.8 5.8 116.8 44 162.1 37.1 43.9 92.7 66.2 165.4 66.2 157.4 0 273.9-72.5 328.4-204.2 21.4 0.4 67.6 0.1 91.3-45.2 1.5-2.5 6.6-13.2 8.5-17.1l-13.3-8.9zm-511-27.9h-66.1v59.4h66.1v-59.4zm78 0h-66.1v59.4h66.1v-59.4zm78.1 0h-66.1v59.4h66.1v-59.4zm-78.1-72.1h-66.1v60.1h66.1v-60.1z" fill-rule="nonzero"/>
    </g>
</svg>

<?xml version="1.0" encoding="UTF-8" standalone="no"?>
<!DOCTYPE svg PUBLIC "-//W3C//DTD SVG 1.1//EN" "http://www.w3.org/Graphics/SVG/1.1/DTD/svg11.dtd">
<svg width="100%" height="100%" viewBox="0 0 100 100" version="1.1" xmlns="http://www.w3.org/2000/svg" xmlns:xlink="http://www.w3.org/1999/xlink" xml:space="preserve" xmlns:serif="http://www.serif.com/" style="fill-rule:evenodd;clip-rule:evenodd;stroke-linejoin:round;stroke-miterlimit:2;">
    <g id="docker" transform="matrix(0.154677,0,0,0.154677,0.506742,10.395)">
        <path d="M349.9,236.3L283.8,236.3L283.8,176.9L349.9,176.9L349.9,236.3ZM349.9,32L283.8,32L283.8,92.7L349.9,92.7L349.9,32ZM428.1,176.8L362,176.8L362,236.2L428.1,236.2L428.1,176.8ZM271.8,104.7L205.7,104.7L205.7,164.8L271.8,164.8L271.8,104.7ZM349.9,104.7L283.8,104.7L283.8,164.8L349.9,164.8L349.9,104.7ZM626.7,204.7C612.3,195 579.1,191.5 553.6,196.3C550.3,172.3 536.9,151.4 512.5,132.6L498.5,123.3L489.2,137.3C470.8,165.1 465.8,210.9 485.5,241.1C476.8,245.8 459.7,252.2 437.1,251.8L2.4,251.8C-6.3,302.6 8.2,368.6 46.4,413.9C83.5,457.8 139.1,480.1 211.8,480.1C369.2,480.1 485.7,407.6 540.2,275.9C561.6,276.3 607.8,276 631.5,230.7C633,228.2 638.1,217.5 640,213.6L626.7,204.7ZM115.7,176.8L49.6,176.8L49.6,236.2L115.7,236.2L115.7,176.8ZM193.7,176.8L127.6,176.8L127.6,236.2L193.7,236.2L193.7,176.8ZM271.8,176.8L205.7,176.8L205.7,236.2L271.8,236.2L271.8,176.8ZM193.7,104.7L127.6,104.7L127.6,164.8L193.7,164.8L193.7,104.7Z" style="fill-rule:nonzero;"/>
    </g>
</svg>
